X: 617
T: Düşeli Aşkın
C: Yusuf Çelebi (Tiznam)
O: Turkey
F: http://compmusic.upf.edu/node/140
N: huzzam--ilahi--muhammes--duseli_askin--tiznam_yusuf_celebi
N: makam= huzzam
N: form= ilahi
N: usul= muhammes = 32/4
M: 32/4
L: 1/16
K: C _1/4B _3/4e ^3/4f 
Q: 1/4=72
%%MIDI tuningsystem comma53
d8 d8  | _7/8e3 d c2 e2 d8  | c4 d4 _7/8e2 ^f2 e2 d2  | \
w:   |   |   | 
z2 c d c2 d2 c2 d2 c2 B2  | 
w:   | 
B4 g4 g6 ^f2  | z2 g2 ^f2 _7/8e2 e4 d4  | \
w:   |   | 
_7/8e3 d e2 ^f2 e2 f2 e2 d2  | d2 g6 g a g ^f g4  | 
w:   |   | 
z2 g6 g2 a2 g2 ^f2  | g2 a2 g2 ^f2 g4 g4  | \
w:   |   | 
g4 ^f2 g2 a4 g2 f2  | z2 _7/8e4 d2 e3 d c B c2  | 
w:   |   | 
z2 _7/8e2 d2 e2 ^f4 e2 d2  | z2 d4 _1/4e2 d3 c B2 d2  | \
w:   |   | 
c4 c4 c4 d4  | z2 B4 d2 c4 d4  | 
w:   |   | 
z2 B4 c2 d3 _7/8e d2 c2  | B4 B4 ^f4 _7/8e2 d2  | \
w:   |   | 
z2 g2 =f2 =e2 f4 e2 d2  | z2 =e =f e2 d2 d3 c B ^A B2  | 
w:   |   | 
z2 _7/8e2 d2 e2 ^f4 e2 d2  | z2 d4 _1/4e2 d3 c B4  | \
w:   |   | 
c3 B c2 d2 c2 d2 c2 B2  | 
w:   | 
z2 ^f6 f g f ^e f4  | z2 g6 g2 a2 g2 ^f2  | \
w:   |   | 
g2 a2 g2 ^f2 g4 g4  | g4 ^f2 g2 a4 g2 f2  | 
w:   |   | 
z2 _7/8e4 d2 e3 d c B c2  | z2 _7/8e2 d2 e2 ^f4 e2 d2  | \
w:   |   | 
z2 d4 _1/4e2 d3 c B2 d2  | 
w:   | 
c4 c4 c4 d4  | z2 B4 d2 c4 d4  | z2 B4 c2 d3 _7/8e d2 c2  | \
w:   |   |   | 
B4 B4 ^f4 _7/8e2 d2  | 
w:   | 
z2 g2 =f2 =e2 f4 e2 d2  | z2 =e =f e2 d2 d3 c B ^A B2  | \
w:   |   | 
z2 _7/8e2 d2 e2 ^f4 e2 d2  | 
w:   | 
z2 d4 _1/4e2 d3 c B4  | c3 B c2 d2 c2 d2 c2 B2  | \
w:   |   | 
B4 B4 B4 z4  | ^f8 f8  | g3 ^f ^e2 g2 f4 f4  | 
w:   |   |   | 
^e4 ^f4 g2 a2 g2 f2  | z2 g2 ^f2 _7/8e2 f3 e d c d2  | \
w:   |   | 
d4 g4 g2 a2 g2 ^f2  | 
w:   | 
^f2 g2 f2 _7/8e2 e4 d4  | _7/8e3 d e2 ^f2 e2 f2 e2 d2  | \
w:   |   | 
d2 g6 g a g ^f g4  | 
w:   | 
z2 g6 g2 a2 g2 ^f2  | g2 a2 g2 ^f2 g4 g4  | \
w:   |   | 
g4 ^f2 g2 a4 g2 f2  | z2 _7/8e4 d2 e3 d c B c2  | 
w:   |   | 
z2 _7/8e2 d2 e2 ^f4 e2 d2  | z2 d4 _1/4e2 d3 c B2 d2  | \
w:   |   | 
c4 c4 c4 d4  | z2 B4 d2 c4 d4  | 
w:   |   | 
z2 B4 c2 d3 _7/8e d2 c2  | B4 B4 ^f4 _7/8e2 d2  | \
w:   |   | 
z2 g2 =f2 =e2 f4 e2 d2  | z2 =e =f e2 d2 d3 c B ^A B2  | 
w:   |   | 
z2 _7/8e2 d2 e2 ^f4 e2 d2  | z2 d4 _1/4e2 d3 c B4  | \
w:   |   | 
c3 B c2 d2 c2 d2 c2 B2  | 
w:   | 
z2 ^f6 f g f ^e f4  | z2 g6 g2 a2 g2 ^f2  | \
w:   |   | 
g2 a2 g2 ^f2 g4 g4  | g4 ^f2 g2 a4 g2 f2  | 
w:   |   | 
z2 _7/8e4 d2 e3 d c B c2  | z2 _7/8e2 d2 e2 ^f4 e2 d2  | \
w:   |   | 
z2 d4 _1/4e2 d3 c B2 d2  | 
w:   | 
c4 c4 c4 d4  | z2 B4 d2 c4 d4  | z2 B4 c2 d3 _7/8e d2 c2  | \
w:   |   |   | 
B4 B4 ^f4 _7/8e2 d2  | 
w:   | 
z2 g2 =f2 =e2 f4 e2 d2  | z2 =e =f e2 d2 d3 c B ^A B2  | \
w:   |   | 
z2 _7/8e2 d2 e2 ^f4 e2 d2  | 
w:   | 
z2 d4 _1/4e2 d3 c B4  | c3 B c2 d2 c2 d2 c2 B2  | \
w:   |   | 
B4 B4 B4 z4  | |


